svg/24/skip-forward.svg

<svg width="24" height="24" viewBox="0 0 24 24" fill="currentColor" xmlns="http://www.w3.org/2000/svg"><path d="M22 3.75C22 3.33579 21.6642 3 21.25 3C20.8358 3 20.5 3.33579 20.5 3.75V20.25C20.5 20.6642 20.8358 21 21.25 21C21.6642 21 22 20.6642 22 20.25V3.75Z"/><path fill-rule="evenodd" clip-rule="evenodd" d="M17 10.268C18.3333 11.0378 18.3333 12.9623 17 13.7321L5 20.6603C3.66667 21.4301 2 20.4678 2 18.9282V5.0718C2 3.5322 3.66667 2.56995 5 3.33975L17 10.268ZM16.25 12.433L4.25 19.3612C3.91667 19.5537 3.5 19.3131 3.5 18.9282L3.5 5.0718C3.5 4.6869 3.91667 4.44634 4.25 4.63879L16.25 11.567C16.5833 11.7594 16.5833 12.2406 16.25 12.433Z"/></svg>

<svg xmlns="http://www.w3.org/2000/svg" width="24" height="24" fill="currentColor" viewBox="0 0 24 24">
  <path d="M22 3.75a.75.75 0 0 0-1.5 0v16.5a.75.75 0 0 0 1.5 0V3.75Z"/>
  <path fill-rule="evenodd" d="M17 10.268c1.333.77 1.333 2.694 0 3.464L5 20.66c-1.333.77-3-.192-3-1.732V5.072C2 3.532 3.667 2.57 5 3.34l12 6.928Zm-.75 2.165-12 6.928a.5.5 0 0 1-.75-.433V5.072a.5.5 0 0 1 .75-.433l12 6.928a.5.5 0 0 1 0 .866Z" clip-rule="evenodd"/>
</svg>
